Adwaita++-Dark/actions/22/amarok_cart_remove.svg

<svg height="22" viewBox="0 0 22 22" width="22" xmlns="http://www.w3.org/2000/svg">
  <path d="m5 1c-.554 0-1 .446-1 1v3h-2c-.554 0-1 .446-1 1v8c0 .554.446 1 1 1h7v-4h6v-5c0-.554-.446-1-1-1h-2v-3c0-.554-.446-1-1-1zm1 2h4v2h-4zm4 9v2h6v-2z" fill="#e6ddff" transform="translate(3 3)"/>
</svg>

<svg xmlns="http://www.w3.org/2000/svg" width="22" height="22" viewBox="0 0 22 22">
 <defs>
  <style id="current-color-scheme" type="text/css">
   .ColorScheme-Text { color:#E6DDFF; } .ColorScheme-Highlight { color:#4285f4; }
  </style>
 </defs>
 <path style="fill:currentColor" class="ColorScheme-Text" d="M 5 1 C 4.446 1 4 1.446 4 2 L 4 5 L 2 5 C 1.446 5 1 5.446 1 6 L 1 14 C 1 14.554 1.446 15 2 15 L 9 15 L 9 11 L 15 11 L 15 6 C 15 5.446 14.554 5 14 5 L 12 5 L 12 2 C 12 1.446 11.554 1 11 1 L 5 1 z M 6 3 L 10 3 L 10 5 L 6 5 L 6 3 z M 10 12 L 10 14 L 16 14 L 16 12 L 10 12 z" transform="translate(3 3)"/>
</svg>
